X: 41951
T: Walking Stick, The
R: mazurka
M: 3/4
K: Dmajor
P: A
|:A/|d2 f2 a>g|b>a B2 (3ggg|f>e A>c e>a|f<d F2- F>A|
(3ddd f2 a>g|b>a B2 (3ggg|f>e A>c e<c|1 d2- d2- d3/2:|2 d2- d>A F>E||
P: B
|:D2 F>A d>f|a2 g>e A>d|(3ggg f>d A>d|(3fff d>A F>E|
D2 F>A d3/2[f/b/]|a2 g>e A>d|g2 f>d A>G|1 F>A d2- d>A:|2 d2- d2- d3/2||

